T: Slippery Jig
M: 9/8
L: 1/8
K: Emin
E3 GFE AGF| E3 GFE FDF| E3 GFE AGF| BAB d2e BAG|
E3 GFE AGF| E3 GFE FDF| E3 GFE AGF| BAB d2B gfd|
efe gfe dBd| efe bag fed| efe gfe dBd| e2d B2A Bdf|
efe gfe dBd| efe bag fed| efe gfe dBd| cBA BAG AGF|
